symbolic/16x16/apps/kali-magictree.svg

<svg width="16" height="16" version="1.1" xmlns="http://www.w3.org/2000/svg">
 <path d="m8.077636 4.0018371a1.6564074 1.6685697 0 0 0-1.5122907 0.8325721l-2.1713912 3.7889364-2.1721994 3.7889364a1.6564074 1.6685697 0 0 0 0.5062529 2.215847s2.0866455 1.371871 5.2719922 1.371871c3.1853472 0 5.2719922-1.371871 5.2719922-1.371871a1.6564074 1.6685697 0 0 0 0.506254-2.215847l-2.1722-3.7889364-2.1713908-3.7889364a1.6564074 1.6685697 0 0 0-1.3570192-0.8325721z" style="fill:#1d4d85"/>
 <path d="m8.0646962 3.001532a1.3803395 1.3904748 0 0 0-1.260242 0.6938099l-1.8094925 3.1574467-1.8101663 3.1574474a1.3803395 1.3904748 0 0 0 0.4218776 1.846539s1.7388711 1.143225 4.3933261 1.143225c2.6544559 0 4.3933279-1.143225 4.3933279-1.143225a1.3803395 1.3904748 0 0 0 0.421877-1.846539l-1.810166-3.1574474-1.8094923-3.1574467a1.3803395 1.3904748 0 0 0-1.1308495-0.6938099z" style="fill:#2a83c0"/>
 <path d="m8.0517567 2.0012306a1.1042709 1.112379 0 0 0-1.0081929 0.5550477l-1.4475931 2.5259555-1.4481318 2.5259563a1.1042709 1.112379 0 0 0 0.3375018 1.4772302s1.3910959 0.9145797 3.5146584 0.9145797c2.1235639 0 3.5146599-0.9145797 3.5146599-0.9145797a1.1042709 1.112379 0 0 0 0.337502-1.4772302l-1.448132-2.5259563-1.4475933-2.5259555a1.1042709 1.112379 0 0 0-0.904679-0.5550477z" style="fill:#5bb9db"/>
 <path d="m7.9999635-3.5948896e-5c-0.2704538 0.0040027589-0.4633326 0.17273675-0.5538504 0.45205451l0.00338-0.0125963-0.4249442 1.5727836h-1.4330354c-0.00311-5.18e-5 -0.00608-5.18e-5 -0.00921 0-0.1711296 0.00574-0.3254355 0.088501-0.434152 0.2255881-0.2351209 0.2795357-0.1852874 0.5071386 0.1132814 0.7156126l1.1266738 0.85284-0.437221 1.4068469c-4.875e-4 0.00154-9.375e-4 0.00311-0.00139 0.00469-0.066808 0.2273069-4e-3 0.4614876 0.164063 0.6216851 0.00116 0.0012 0.00263 0.00236 0.00392 0.00353 0.2019392 0.1859331 0.4856759 0.2095645 0.7137273 0.055665 0.00434-0.00293 0.00865-0.00594 0.012833-0.00908l1.1559763-0.8645678 1.1559711 0.8645577c0.00418 0.00311 0.00849 0.00618 0.012833 0.00908 0.2280513 0.1538997 0.5117888 0.1302682 0.7137272-0.055665 0.00122-0.00116 0.00263-0.00233 0.00394-0.00353 0.1680464-0.1601975 0.2308704-0.3943782 0.1640624-0.6216851-4.5e-4 -0.00157-9.38e-4 -0.00311-0.0014-0.00469l-0.4372553-1.4068368 1.1266743-0.8528396c0.298568-0.2084744 0.348402-0.4360773 0.113281-0.7156129-0.108716-0.1370868-0.263022-0.219843-0.434152-0.2255881-0.0031-5.18e-5 -0.0061-5.18e-5 -0.0092 0h-1.4330351l-0.4249442-1.5727836 0.00338 0.0125963c-0.0906018-0.27931789-0.2834803-0.44805086-0.5539342-0.45205464z" style="fill:#b2bfd9"/>
 <path d="M 7,7.9999999 A 1,1 0 0 1 6.0000001,9 1,1 0 0 1 5,7.9999999 1,1 0 0 1 6.0000001,7 1,1 0 0 1 7,7.9999999 Z" style="fill:#f4f4f7"/>
 <path d="M 12,10.999999 A 0.99999982,0.99999982 0 0 1 10.999999,12 0.99999982,0.99999982 0 0 1 10,10.999999 0.99999982,0.99999982 0 0 1 10.999999,10 0.99999982,0.99999982 0 0 1 12,10.999999 Z" style="fill:#f4f4f7"/>
 <path d="M 7,14.000001 A 1,1 0 0 1 6.0000001,15 1,1 0 0 1 5,14.000001 a 1,1 0 0 1 1.0000001,-1 1,1 0 0 1 0.9999999,1 z" style="fill:#f4f4f7"/>
 <path d="m9 7.5000053a0.50000004 0.50000004 0 0 1-0.5 0.5 0.50000004 0.50000004 0 0 1-0.5-0.5 0.50000004 0.50000004 0 0 1 0.5-0.5 0.50000004 0.50000004 0 0 1 0.5 0.5z" style="fill:#f4f4f7"/>
 <path d="m 8,11.500003 a 0.49999997,0.49999997 0 0 1 -0.4999999,0.5 A 0.49999997,0.49999997 0 0 1 7,11.500003 0.49999997,0.49999997 0 0 1 7.5000001,11.000002 0.49999997,0.49999997 0 0 1 8,11.500003 Z" style="fill:#f4f4f7"/>
 <path d="M 10,14.499999 A 0.50000016,0.50000016 0 0 1 9.5000002,15 0.50000016,0.50000016 0 0 1 9,14.499999 0.50000016,0.50000016 0 0 1 9.5000002,14 0.50000016,0.50000016 0 0 1 10,14.499999 Z" style="fill:#f4f4f7"/>
 <path d="M 5,10.500001 A 0.49999997,0.49999997 0 0 1 4.5000001,11 0.49999997,0.49999997 0 0 1 4,10.500001 a 0.49999997,0.49999997 0 0 1 0.5000001,-0.5 0.49999997,0.49999997 0 0 1 0.4999999,0.5 z" style="fill:#f4f4f7"/>
 <path d="m12.999997 13.5a0.49999966 0.49999966 0 0 1-0.5 0.5 0.49999966 0.49999966 0 0 1-0.5-0.5 0.49999966 0.49999966 0 0 1 0.5-0.5 0.49999966 0.49999966 0 0 1 0.5 0.5z" style="fill:#f4f4f7"/>
</svg>

<svg width="16" height="16" xmlns="http://www.w3.org/2000/svg"><path d="M8.078 4.002a1.656 1.669 0 0 0-1.513.832l-2.171 3.79-2.172 3.788a1.656 1.669 0 0 0 .506 2.216S4.815 16 8 16s5.272-1.372 5.272-1.372a1.656 1.669 0 0 0 .506-2.216l-2.172-3.789-2.171-3.789a1.656 1.669 0 0 0-1.357-.832z" style="fill:#1d4d85"/><path d="M8.065 3.002a1.38 1.39 0 0 0-1.26.693l-1.81 3.158-1.81 3.157a1.38 1.39 0 0 0 .422 1.847S5.346 13 8 13s4.393-1.143 4.393-1.143a1.38 1.39 0 0 0 .422-1.847l-1.81-3.157-1.81-3.158a1.38 1.39 0 0 0-1.13-.693z" style="fill:#2a83c0"/><path d="M8.052 2.001a1.104 1.112 0 0 0-1.008.555L5.596 5.082 4.148 7.608a1.104 1.112 0 0 0 .337 1.477S5.876 10 8 10s3.515-.915 3.515-.915a1.104 1.112 0 0 0 .337-1.477l-1.448-2.526-1.448-2.526a1.104 1.112 0 0 0-.904-.555z" style="fill:#5bb9db"/><path d="M8 0c-.27.004-.463.173-.554.452L7.45.439l-.424 1.573H5.582a.576.576 0 0 0-.434.226c-.235.28-.185.507.113.715l1.127.853-.437 1.407-.002.005a.61.61 0 0 0 .165.621c0 .002.002.003.003.004a.565.565 0 0 0 .727.047L8 5.025l1.156.865a.565.565 0 0 0 .727-.047l.003-.004a.61.61 0 0 0 .165-.621l-.002-.005-.437-1.407 1.127-.853c.298-.208.348-.436.113-.715a.576.576 0 0 0-.444-.226H8.975L8.551.44l.003.013C8.464.172 8.27.004 8 0z" style="fill:#b2bfd9"/><path d="M7 8a1 1 0 0 1-1 1 1 1 0 0 1-1-1 1 1 0 0 1 1-1 1 1 0 0 1 1 1zM12 11a1 1 0 0 1-1 1 1 1 0 0 1-1-1 1 1 0 0 1 1-1 1 1 0 0 1 1 1zM7 14a1 1 0 0 1-1 1 1 1 0 0 1-1-1 1 1 0 0 1 1-1 1 1 0 0 1 1 1zM9 7.5a.5.5 0 0 1-.5.5.5.5 0 0 1-.5-.5.5.5 0 0 1 .5-.5.5.5 0 0 1 .5.5zM8 11.5a.5.5 0 0 1-.5.5.5.5 0 0 1-.5-.5.5.5 0 0 1 .5-.5.5.5 0 0 1 .5.5zM10 14.5a.5.5 0 0 1-.5.5.5.5 0 0 1-.5-.5.5.5 0 0 1 .5-.5.5.5 0 0 1 .5.5zM5 10.5a.5.5 0 0 1-.5.5.5.5 0 0 1-.5-.5.5.5 0 0 1 .5-.5.5.5 0 0 1 .5.5zM13 13.5a.5.5 0 0 1-.5.5.5.5 0 0 1-.5-.5.5.5 0 0 1 .5-.5.5.5 0 0 1 .5.5z" style="fill:#f4f4f7"/></svg>
